X:147
T:Newport Lass, The 
T:Trip to Athlone   
B:CRE1.042 (Gearrchaile Bhaile Ui bhFiachain)
F:file ID: cre.1/147newp_L
S:Matt Tiernan
M:6/8
Q:160
R:jig
K:D
d/B/|ABA DED|dcA AGE|ABA ABc|dAB cde|
ABA DED|dcA AGE|GFG Ade|fdd d2:|
g|fed edc|AdB cde|fed edc|ABc def|
g3 age|dcA AGE|GFG Ade|fdd d2:|

%%%

